X:443
T: Heiliger Mann, Hubertus (5-39), S. 66
N: P0713
O: Lothringen
S: MERKELBACH-PINCK, Angelika: Verklingende Weisen, Bd 5, Kassel 1962]
R: geistliches, religiöses Lied]
M: 3/4
L: 1/8
K: G
D2GA | B2ABc2B2 | B2A4
FG | A2GAB2A2 | G4
D2GA | B2ABc2B2 | B2A4
FG | A2GAB2A2 | G4z2
Bc | dBe3d | dBc2AB | cAd3c | c2B2
D2GA | B2ABc2B2 | B2A4
FG | A2GAB2A2 | G4

